Origami/16x16/apps/timeshift.svg

<svg width="16" height="16" version="1" xmlns="http://www.w3.org/2000/svg">
 <circle cx="8" cy="8" r="8" style="fill:#d44e41"/>
 <path d="m8.4396475 12.684228c-1.2247747-0.471241-1.8666247-0.610178-2.3700286-0.593126-0.5348382 0.04928-0.9901387 0.225078-1.5145912 0.408864-0.2873983 0.08936-0.2877784 0.08471-0.019253-0.235476 0.1506573-0.179647 0.6829785-0.607155 1.1829343-0.950024 0.6803963-0.466613 1.0574127-0.586732 1.4990779-0.586732 0.6956582 0 1.15595-0.451824 1.0072076-0.9451184-0.5586142-0.9699358-1.8939225-2.236074-1.8939225-2.5811215 0-0.28881 0.5165435-1.0221184 1.134743-1.7183432 0.2735464-0.3080703 0.3918922-0.5544644 0.306568-0.6382639-0.1777947-0.1746129-1.8828701-0.4795374-2.6796509-0.4795374-0.6363959 0-1.197355 0.2128648-1.197355 0.6610693 0 0.1243441 0.078031 0.4696717 0.3263721 0.7673941l0.4515289 0.5413129c-0.2986622 0.3632313-0.4262495 0.7569597-0.939932 0.7569597-0.7367435 0-0.7367435-0.6360943-0.7328467-1.2548158 0.104029-1.5151063 2.2726551-3.0338483 4.3238253-2.8163943 1.2973841 0.1377906 2.4346113 0.3364034 3.6766203 0.435562 0.690994 0.036356 1.124185-0.1485166 1.772262-0.4102861 0.469636-0.1896954 0.170135 0.4206105-0.53293 1.0859746-0.845635 0.8002878-1.345964 1.2702708-2.70043 1.1371366-1.0130893-0.09958-1.2902709-0.1569232-1.5223646 0.5023756-0.1841827 0.5232053 0.016872 1.0218585 0.9735775 2.0866403 0.4717641 0.5250576 0.6777531 0.8641958 0.6744811 1.1960492-0.0029 0.296976-0.168942 0.5881178-0.535108 1.0014503-0.3228451 0.364429-0.507684 0.726944-0.461509 0.805585 0.1448711 0.246735 1.104052 0.775283 1.626834 0.775283 0.275551 0 0.795654-0.08265 1.104956-0.24875 0.523183-0.280948 0.745258-0.278414 0.745258 0.0085 0 0.227208-1.646816 1.606228-2.588624 1.6036-0.171323-5e-4 -0.6742657-0.145158-1.1177005-0.315772z" style="fill:#3f3f3f"/>
</svg>

<svg xmlns="http://www.w3.org/2000/svg" width="16" height="16" version="1">
 <circle style="fill:#d44e41" cx="8" cy="8" r="8"/>
 <path style="fill:#3f3f3f" d="M 8.4396475,12.684228 C 7.2148728,12.212987 6.5730228,12.07405 6.0696189,12.091102 c -0.5348382,0.04928 -0.9901387,0.225078 -1.5145912,0.408864 -0.2873983,0.08936 -0.2877784,0.08471 -0.019253,-0.235476 0.1506573,-0.179647 0.6829785,-0.607155 1.1829343,-0.950024 0.6803963,-0.466613 1.0574127,-0.586732 1.4990779,-0.586732 0.6956582,0 1.15595,-0.451824 1.0072076,-0.9451184 C 7.6663803,8.8126798 6.331072,7.5465416 6.331072,7.2014941 c 0,-0.28881 0.5165435,-1.0221184 1.134743,-1.7183432 C 7.7393614,5.1750806 7.8577072,4.9286865 7.772383,4.844887 7.5945883,4.6702741 5.8895129,4.3653496 5.0927321,4.3653496 c -0.6363959,0 -1.197355,0.2128648 -1.197355,0.6610693 0,0.1243441 0.078031,0.4696717 0.3263721,0.7673941 L 4.6732781,6.3351259 C 4.3746159,6.6983572 4.2470286,7.0920856 3.7333461,7.0920856 2.9966026,7.0920856 2.9966026,6.4559913 3.0004994,5.8372698 3.1045284,4.3221635 5.2731545,2.8034215 7.3243247,3.0208755 8.6217088,3.1586661 9.758936,3.3572789 11.000945,3.4564375 11.691939,3.4927935 12.12513,3.3079209 12.773207,3.0461514 13.242843,2.856456 12.943342,3.4667619 12.240277,4.132126 11.394642,4.9324138 10.894313,5.4023968 9.539847,5.2692626 8.5267577,5.1696826 8.2495761,5.1123394 8.0174824,5.7716382 7.8332997,6.2948435 8.0343544,6.7934967 8.9910599,7.8582785 9.462824,8.3833361 9.668813,8.7224743 9.665541,9.0543277 c -0.0029,0.296976 -0.168942,0.5881178 -0.535108,1.0014503 -0.3228451,0.364429 -0.507684,0.726944 -0.461509,0.805585 0.1448711,0.246735 1.104052,0.775283 1.626834,0.775283 0.275551,0 0.795654,-0.08265 1.104956,-0.24875 0.523183,-0.280948 0.745258,-0.278414 0.745258,0.0085 0,0.227208 -1.646816,1.606228 -2.588624,1.6036 -0.171323,-5e-4 -0.6742657,-0.145158 -1.1177005,-0.315772 z"/>
</svg>
